assets/svgs/extras/people/People7.svg

<svg id="emoji" viewBox="0 0 72 72" xmlns="http://www.w3.org/2000/svg">
  <g id="color">
    <ellipse cx="19.5" cy="42" rx="3.5" ry="3" fill="#3F3F3F"/>
    <g>
      <path fill="#3F3F3F" fill-rule="evenodd" d="M43 46.1526V58H20V46.9361C21.2651 46.3992 22.6326 46.1 24 46.1C30 51.1 36 51.1 42 46.1C42.3338 46.1 42.6677 46.1178 43 46.1526Z" clip-rule="evenodd"/>
      <path fill="#3F3F3F" d="M43 46.1526H44C44 45.6406 43.6133 45.2113 43.104 45.158L43 46.1526ZM43 58V59C43.5523 59 44 58.5523 44 58H43ZM20 58H19C19 58.5523 19.4477 59 20 59V58ZM20 46.9361L19.6093 46.0156C19.2399 46.1724 19 46.5348 19 46.9361H20ZM24 46.1L24.6402 45.3318C24.4605 45.182 24.2339 45.1 24 45.1V46.1ZM42 46.1V45.1C41.7661 45.1 41.5395 45.182 41.3598 45.3318L42 46.1ZM42 46.1526V58H44V46.1526H42ZM43 57H20V59H43V57ZM21 58V46.9361H19V58H21ZM20.3907 47.8567C21.5422 47.3679 22.7772 47.1 24 47.1V45.1C22.488 45.1 20.9881 45.4304 19.6093 46.0156L20.3907 47.8567ZM23.3598 46.8682C26.4845 49.4721 29.7032 50.85 33 50.85C36.2968 50.85 39.5155 49.4721 42.6402 46.8682L41.3598 45.3318C38.4845 47.7278 35.7032 48.85 33 48.85C30.2968 48.85 27.5155 47.7278 24.6402 45.3318L23.3598 46.8682ZM42 47.1C42.2982 47.1 42.5973 47.1159 42.896 47.1471L43.104 45.158C42.738 45.1197 42.3694 45.1 42 45.1V47.1Z"/>
    </g>
    <g>
      <path fill="#6A462F" fill-rule="evenodd" d="M24 58V54H42L42.5 46.6L43.4202 46.2056C44.3047 46.3364 45.1742 46.5856 46 46.9361V58H24Z" clip-rule="evenodd"/>
      <path fill="#6A462F" d="M24 54V53C23.4477 53 23 53.4477 23 54H24ZM24 58H23C23 58.5523 23.4477 59 24 59V58ZM42 54V55C42.5261 55 42.9623 54.5923 42.9977 54.0674L42 54ZM42.5 46.6L42.1061 45.6808C41.7608 45.8288 41.5276 46.1578 41.5023 46.5326L42.5 46.6ZM43.4202 46.2056L43.5664 45.2164C43.3834 45.1893 43.1963 45.2136 43.0262 45.2865L43.4202 46.2056ZM46 46.9361H47C47 46.5348 46.7601 46.1724 46.3907 46.0156L46 46.9361ZM46 58V59C46.5523 59 47 58.5523 47 58H46ZM23 54V58H25V54H23ZM42 53H24V55H42V53ZM41.5023 46.5326L41.0023 53.9326L42.9977 54.0674L43.4977 46.6674L41.5023 46.5326ZM43.0262 45.2865L42.1061 45.6808L42.8939 47.5191L43.8141 47.1248L43.0262 45.2865ZM43.2739 47.1949C44.0709 47.3127 44.8584 47.5379 45.6093 47.8567L46.3907 46.0156C45.4899 45.6333 44.5385 45.3601 43.5664 45.2164L43.2739 47.1949ZM47 58V46.9361H45V58H47ZM24 59H46V57H24V59Z"/>
    </g>
    <path fill="#fff" d="M41 57.1L61 57.1L59 60.1H43L41 57.1Z"/>
    <g>
      <path fill="#fff" fill-rule="evenodd" d="M51 58.1C54.3137 58.1 57 53.6228 57 48.1H45C45 53.6228 47.6863 58.1 51 58.1Z" clip-rule="evenodd"/>
      <path fill="#fff" d="M57 48.1H58C58 47.5477 57.5523 47.1 57 47.1V48.1ZM45 48.1V47.1C44.4477 47.1 44 47.5477 44 48.1H45ZM56 48.1C56 50.7113 55.3629 53.027 54.3851 54.6565C53.3955 56.306 52.1676 57.1 51 57.1V59.1C53.1461 59.1 54.9182 57.6554 56.1001 55.6855C57.294 53.6958 58 51.0115 58 48.1H56ZM45 49.1H57V47.1H45V49.1ZM51 57.1C49.8324 57.1 48.6045 56.306 47.6149 54.6565C46.6371 53.027 46 50.7113 46 48.1H44C44 51.0115 44.706 53.6958 45.8999 55.6855C47.0818 57.6554 48.8539 59.1 51 59.1V57.1Z"/>
    </g>
  </g>
  <g id="hair">
    <path fill="#6A462F" fill-rule="evenodd" d="M33 10.5808C43 10.5808 46.5 17.5808 46.5 24.5808C46.5 29.0727 45.2647 33.1529 43.3225 35.5C45.1804 29.9 44.0966 25.8872 43.3225 24.5808C41.715 22.8872 38 18.9 36 16.5C32 21.2354 25.6667 23.1397 23 23.5C22.6667 24 22 26 22 30C22 31.8964 22.1498 33.5051 22.343 34.7645L22.5 35L25.5 41H22.8008C22.3204 39.8348 21.0239 39 19.5 39C18.4201 39 17.4544 39.4192 16.8124 40.0781L14.5 39.5L15.5 24.5L16.5037 26.0056C16.5012 25.8648 16.5 25.7232 16.5 25.5808C16.5 16.5 23 10.5808 33 10.5808Z" clip-rule="evenodd"/>
    <path fill="#6A462F" fill-rule="evenodd" d="M24 59V52.5C24 47.2533 21.9853 43 19.5 43C17.0147 43 15 47.2533 15 52.5V59H24Z" clip-rule="evenodd"/>
  </g>
  <g id="skin">
    <path fill="#FCEA2B" d="M22 30C22 39 26.9365 44 33 44C38.9365 44 44.0635 39 44.0635 30C44.088 28.2813 43.7471 26.5771 43.0635 25C40.0635 22 36.0635 17 36.0635 17C32.0635 20 29.0635 23 23.0635 24.0005C23.0635 24 22 24.9992 22 30Z"/>
  </g>
  <g id="line">
    <path fill="none" stroke="#000" stroke-linejoin="round" stroke-width="2" d="M21.9365 29.5808C21.9365 38.5808 26.873 43.5808 32.9365 43.5808C38.873 43.5808 44 38.5808 44 29.5808C44.0245 27.8621 43.6836 26.1579 43 24.5808C40 21.5808 36 16.5808 36 16.5808C32 19.5808 29 22.5808 23 23.5813C23 23.5813 21.9365 24.58 21.9365 29.5808Z"/>
    <path fill="#000" d="M38.9529 28.0468C38.9529 29.1514 38.0575 30.0468 36.9529 30.0468C35.8483 30.0468 34.9529 29.1514 34.9529 28.0468C34.9529 26.9422 35.8483 26.0468 36.9529 26.0468C38.0573 26.0472 38.9525 26.9424 38.9529 28.0468Z"/>
    <path fill="#000" d="M30.9529 28.0468C30.9529 29.1514 30.0575 30.0468 28.9529 30.0468C27.8483 30.0468 26.9529 29.1514 26.9529 28.0468C26.9529 26.9422 27.8483 26.0468 28.9529 26.0468C30.0573 26.0472 30.9525 26.9424 30.9529 28.0468Z"/>
    <path fill="none" stroke="#000" stroke-linecap="round" stroke-linejoin="round" stroke-width="2" d="M16.5 40C13 40 15.5 36.9192 15.5 26C15.5 16.9192 23 10.5808 33 10.5808C43 10.5808 46.5 17.5808 46.5 24.5808C46.5 29.0727 45.2647 33.1529 43.3225 35.5"/>
    <path fill="#000" d="M32.9527 38.0492C31.7522 38.0376 30.5714 37.7437 29.5055 37.1913C29.0115 36.9443 28.8112 36.3436 29.0582 35.8495C29.3052 35.3554 29.9059 35.1552 30.4 35.4022C31.9934 36.2615 33.9121 36.2615 35.5055 35.4022C35.9995 35.1552 36.6002 35.3554 36.8473 35.8495C37.0944 36.3436 36.8941 36.9442 36.4 37.1913C35.3341 37.7437 34.1532 38.0376 32.9527 38.0492Z"/>
    <path fill="none" stroke="#000" stroke-linecap="round" stroke-width="2" d="M24 58V52.5C24 47.2533 21.9853 43 19.5 43C17.0147 43 15 47.2533 15 52.5V58"/>
    <path fill="none" stroke="#000" stroke-width="2" d="M17.2384 44.2896C16.4808 43.7393 16 42.9178 16 42C16 40.3431 17.567 39 19.5 39C21.433 39 23 40.3431 23 42C23 42.9178 22.5192 43.7393 21.7616 44.2896"/>
    <g>
      <path fill="none" stroke="#000" stroke-linecap="round" stroke-linejoin="round" stroke-width="2" d="M43.5 46.1178C43.0034 46.0403 42.5017 46 42 46C36.6762 50.4365 31.3524 50.9365 26.0286 47.5"/>
      <path fill="#000" d="M27 53C26.4477 53 26 53.4477 26 54C26 54.5523 26.4477 55 27 55V53ZM42 54V55C42.5265 55 42.9628 54.5918 42.9978 54.0665L42 54ZM27 55H42V53H27V55ZM42.9978 54.0665L43.4978 46.5665L41.5022 46.4335L41.0022 53.9335L42.9978 54.0665Z"/>
      <path fill="none" stroke="#000" stroke-linecap="round" stroke-linejoin="round" stroke-width="2" d="M46.1996 54.1C45.4463 52.4287 45 50.3512 45 48.1H57C57 50.3512 56.5537 52.4287 55.8004 54.1"/>
      <path fill="none" stroke="#000" stroke-linejoin="round" stroke-width="2" d="M41 57.1L61 57.1L59 60.1H43L41 57.1Z"/>
    </g>
  </g>
</svg>

<svg xmlns="http://www.w3.org/2000/svg" viewBox="0 0 72 72"><ellipse cx="19.5" cy="42" fill="#3F3F3F" rx="3.5" ry="3"/><g fill="#3F3F3F"><path fill-rule="evenodd" d="M43 46.153V58H20V46.936a10.288 10.288 0 014-.836c6 5 12 5 18 0 .334 0 .668.018 1 .053z" clip-rule="evenodd"/><path d="M43 46.153h1a1 1 0 00-.896-.995l-.104.995zM43 58v1a1 1 0 001-1h-1zm-23 0h-1a1 1 0 001 1v-1zm0-11.064l-.39-.92a1 1 0 00-.61.92h1zm4-.836l.64-.768A1 1 0 0024 45.1v1zm18 0v-1a1 1 0 00-.64.232l.64.768zm0 .053V58h2V46.153h-2zM43 57H20v2h23v-2zm-22 1V46.936h-2V58h2zm-.61-10.143A9.287 9.287 0 0124 47.1v-2c-1.512 0-3.012.33-4.39.916l.78 1.84zm2.97-.989c3.125 2.604 6.343 3.982 9.64 3.982 3.297 0 6.516-1.378 9.64-3.982l-1.28-1.536c-2.876 2.396-5.657 3.518-8.36 3.518-2.703 0-5.485-1.122-8.36-3.518l-1.28 1.536zM42 47.1c.298 0 .597.016.896.047l.208-1.989A10.61 10.61 0 0042 45.1v2z"/></g><g fill="#6A462F"><path fill-rule="evenodd" d="M24 58v-4h18l.5-7.4.92-.394c.885.13 1.754.38 2.58.73V58H24z" clip-rule="evenodd"/><path d="M24 54v-1a1 1 0 00-1 1h1zm0 4h-1a1 1 0 001 1v-1zm18-4v1a1 1 0 00.998-.933L42 54zm.5-7.4l-.394-.92a1 1 0 00-.604.853l.998.067zm.92-.394l.146-.99a1 1 0 00-.54.07l.394.92zm2.58.73h1a1 1 0 00-.61-.92l-.39.92zM46 58v1a1 1 0 001-1h-1zm-23-4v4h2v-4h-2zm19-1H24v2h18v-2zm-.498-6.467l-.5 7.4 1.996.134.5-7.4-1.996-.134zm1.524-1.247l-.92.395.788 1.838.92-.394-.788-1.839zm.248 1.909a9.575 9.575 0 012.335.662l.782-1.841a11.58 11.58 0 00-2.825-.8l-.292 1.979zM47 58V46.936h-2V58h2zm-23 1h22v-2H24v2z"/></g><path fill="#fff" d="M41 57.1h20l-2 3H43l-2-3z"/><g fill="#fff"><path fill-rule="evenodd" d="M51 58.1c3.314 0 6-4.477 6-10H45c0 5.523 2.686 10 6 10z" clip-rule="evenodd"/><path d="M57 48.1h1a1 1 0 00-1-1v1zm-12 0v-1a1 1 0 00-1 1h1zm11 0c0 2.611-.637 4.927-1.615 6.556-.99 1.65-2.217 2.444-3.385 2.444v2c2.146 0 3.918-1.445 5.1-3.415 1.194-1.99 1.9-4.674 1.9-7.585h-2zm-11 1h12v-2H45v2zm6 8c-1.168 0-2.395-.794-3.385-2.444C46.637 53.028 46 50.712 46 48.1h-2c0 2.911.706 5.596 1.9 7.585 1.182 1.97 2.954 3.415 5.1 3.415v-2z"/></g><g fill="#6A462F" fill-rule="evenodd" clip-rule="evenodd"><path d="M33 10.58c10 0 13.5 7 13.5 14 0 4.493-1.235 8.573-3.178 10.92 1.858-5.6.775-9.613 0-10.92C41.715 22.888 38 18.9 36 16.5c-4 4.735-10.333 6.64-13 7-.333.5-1 2.5-1 6.5 0 1.896.15 3.505.343 4.764L22.5 35l3 6h-2.7c-.48-1.165-1.776-2-3.3-2-1.08 0-2.046.42-2.688 1.078L14.5 39.5l1-15 1.004 1.506a23.93 23.93 0 01-.004-.425c0-9.081 6.5-15 16.5-15zM24 59v-6.5c0-5.247-2.015-9.5-4.5-9.5S15 47.253 15 52.5V59h9z"/></g><g><path fill="#FCEA2B" d="M22 30c0 9 4.936 14 11 14 5.937 0 11.063-5 11.063-14a12.137 12.137 0 00-1-5c-3-3-7-8-7-8-4 3-7 6-13 7 0 0-1.063 1-1.063 6z"/></g><g><path fill="none" stroke="#000" stroke-linejoin="round" stroke-width="2" d="M21.936 29.58c0 9 4.937 14 11 14 5.937 0 11.064-5 11.064-14a12.137 12.137 0 00-1-5c-3-3-7-8-7-8-4 3-7 6-13 7.001 0 0-1.064.999-1.064 6z"/><path d="M38.953 28.047a2 2 0 11-4 0 2 2 0 014 0zM30.953 28.047a2 2 0 11-4 0 2 2 0 014 0z"/><path fill="none" stroke="#000" stroke-linecap="round" stroke-linejoin="round" stroke-width="2" d="M16.5 40c-3.5 0-1-3.08-1-14 0-9.08 7.5-15.42 17.5-15.42s13.5 7 13.5 14c0 4.493-1.235 8.573-3.178 10.92"/><path d="M32.953 38.05a7.652 7.652 0 01-3.448-.859 1 1 0 01.895-1.789c1.593.86 3.512.86 5.105 0a1 1 0 01.895 1.79 7.653 7.653 0 01-3.447.857z"/><path fill="none" stroke="#000" stroke-linecap="round" stroke-width="2" d="M24 58v-5.5c0-5.247-2.015-9.5-4.5-9.5S15 47.253 15 52.5V58"/><path fill="none" stroke="#000" stroke-width="2" d="M17.238 44.29C16.481 43.74 16 42.918 16 42c0-1.657 1.567-3 3.5-3s3.5 1.343 3.5 3c0 .918-.48 1.74-1.238 2.29"/><path fill="none" stroke="#000" stroke-linecap="round" stroke-linejoin="round" stroke-width="2" d="M43.5 46.118A9.731 9.731 0 0042 46c-5.324 4.437-10.648 4.937-15.971 1.5"/><path d="M27 53a1 1 0 100 2v-2zm15 1v1a1 1 0 00.998-.934L42 54zm-15 1h15v-2H27v2zm15.998-.934l.5-7.5-1.996-.133-.5 7.5 1.996.133z"/><path fill="none" stroke="#000" stroke-linecap="round" stroke-linejoin="round" stroke-width="2" d="M46.2 54.1c-.754-1.671-1.2-3.749-1.2-6h12c0 2.251-.446 4.329-1.2 6"/><path fill="none" stroke="#000" stroke-linejoin="round" stroke-width="2" d="M41 57.1h20l-2 3H43l-2-3z"/></g></svg>
